X: 31
T: Missa De plus en plus / Sanctus
N: Derived from Ock1005d-Missa_De_plus_en_plus-Sanctus.krn
C: Johannes Ockeghem
%%abc-version 2.0
%%abcx-abcm2ps-target-version 5.9.1 (29 Sep 2008)
%%abc-creator hum2abc beta
%%abcx-conversion-date 2019/02/17 07:26:14
%%abc-edited-by Jesse Rodin
%%abc-edited-by Will Watson 16/1/2012
%%abcx-initial-encoding-date 2012/01/16/
%%humdrum-veritas 1264775849
%%humdrum-veritas-data 1097956452
%%linebreak <none>
%%barnumbers 0
L: 1/4
M: 3/1
Q: 1/2=120
%%staves [1 2 3 4]
V: 1 clef=treble
V: 2 clef=treble-8
V: 3 clef=treble-8
V: 4 clef=bass
K: C
[V:1] G12 | 
[V:2] G12- | 
[V:3] z12 :
[V:4] z12 | 
[V:1] E2D2F2EFG2E2 | 
[V:2] G4A4G2c2- | 
[V:3] z12 :
[V:4] z12 | 
[V:1] D4z2C4B,2 | 
[V:2] c2B2c2A4G2 | 
[V:3] z12 | 
[V:4] z12 | 
[V:1] A,2D4E4D2 | 
[V:2] F4G4D2G2- | 
[V:3] z12 :
[V:4] z12 | 
[V:1] B,2G,2A,4G,4 | 
[V:2] G6^F2G4- | 
[V:3] z12 :
[V:4] z12 | 
[V:1] z4G4G4 | 
[V:2] G2A2B2c2B4 | 
[V:3] z12 | 
[V:4] z12 | 
[V:1] A6^F2!fermata!F4- | 
[V:2] A8!fermata!d4- | 
[V:3] z12 :
[V:4] z12 | 
[V:1] F12 | 
[V:2] d12 | 
[V:3] z12 :
[V:4] z12 | 
[V:1] z12 | 
[V:2] z12 | 
[V:3] z12 | 
[V:4] z12 | 
[V:1] ^F6G2A2B2 | 
[V:2] d12 | 
[V:3] z12 :
[V:4] z12 | 
[V:1] A2d4c3AB2 | 
[V:2] d4B2c2d4 | 
[V:3] z12 :
[V:4] z12 | 
[V:1] c4A2G2z2c2 | 
[V:2] c8A4 | 
[V:3] z12 | 
[V:4] z12 | 
[V:1] B2d4c2A2G2 | 
[V:2] G4B2c4e2- | 
[V:3] z12 :
[V:4] z12 | 
[V:1] c4B2A4G2 | 
[V:2] e2d4c2B4 | 
[V:3] z12 :
[V:4] z12 | 
[V:1] F2A3GF2E4 | 
[V:2] A4c2d2e2c2 | 
[V:3] z12 | 
[V:4] z12 | 
[V:1] D2F2E2D2E4 | 
[V:2] d4c2d3Bc2 | 
[V:3] z12 :
[V:4] z12 | 
[V:1] F2D4G3AB2- | 
[V:2] d3cd2B2G2d2- | 
[V:3] z12 :
[V:4] z12 | 
[V:1] B2A4G4^F2 | 
[V:2] d2c2d2G2A4 | 
[V:3] z12 | 
[V:4] z12 | 
[V:1] G6F2E4 | 
[V:2] G4z4g4 | 
[V:3] G12 :
[V:4] z12 | 
[V:1] D8z4 | 
[V:2] g12 | 
[V:3] B12- :
[V:4] G,6F,2E,4 | 
[V:1] F4G8 | 
[V:2] f4e8 | 
[V:3] B12 | 
[V:4] D,4G,8 | 
[V:1] A12 | 
[V:2] f6e2c4 | 
[V:3] c12- :
[V:4] F,12 | 
[V:1] G4c6A2 | 
[V:2] z4g8 | 
[V:3] c4e8 :
[V:4] E,4C,8 | 
[V:1] B2d4c2A3G | 
[V:2] g6f2e2d2 | 
[V:3] d8c4 | 
[V:4] G,8z4 | 
[V:1] G4z2F4EF | 
[V:2] d6c2A4 | 
[V:3] B4A8 :
[V:4] z4D,8 | 
[V:1] G3FD8 | 
[V:2] d4B2B4G2 | 
[V:3] G12- :
[V:4] G,,12 | 
[V:1] z4G8 | 
[V:2] G3FD4E4- | 
[V:3] G12- | 
[V:4] G,,8C,4- | 
[V:1] G6F2D4 | 
[V:2] E4D4G4 | 
[V:3] G12 :
[V:4] C,4B,,8 | 
[V:1] E4A6G2 | 
[V:2] A3GE4z4 | 
[V:3] c12- :
[V:4] A,,8A,4 | 
[V:1] E6F2G4- | 
[V:2] z4A4G4 | 
[V:3] c12 | 
[V:4] A,6G,2E,3F, | 
[V:1] G2F2D4z4 | 
[V:2] d8e4- | 
[V:3] B8c4- :
[V:4] G,8C,4- | 
[V:1] G4A4c4 | 
[V:2] e12 | 
[V:3] c4A8 :
[V:4] C,4C8 | 
[V:1] B4G2G4^F2 | 
[V:2] z2f2d2d4c2 | 
[V:3] z12 | 
[V:4] E2D3B,G,2A,4 | 
[V:1] G6E4C2 | 
[V:2] B4c6B2 | 
[V:3] G4C8 :
[V:4] G,12 | 
[V:1] C3DF3ED3C | 
[V:2] G4z2F4EF | 
[V:3] E4D8- :
[V:4] z12 | 
[V:1] B,2D4C3A,B,2 | 
[V:2] G6FEF4 | 
[V:3] D12 | 
[V:4] G,,3A,,B,,2C,2D,4 | 
[V:1] C8z4 | 
[V:2] G4A4G2c2- | 
[V:3] C12- :
[V:4] z4E,6C,2 | 
[V:1] G4A4G4 | 
[V:2] c2B2A4z4 | 
[V:3] C12- :
[V:4] C,4z4G,4 | 
[V:1] c2c4B2A4 | 
[V:2] c3de8 | 
[V:3] C12 | 
[V:4] A,4G,4C2C2- | 
[V:1] G4z2F2G2D2- | 
[V:2] z2d4c2B3G | 
[V:3] z12 :
[V:4] C2B,2A,4G,4 | 
[V:1] D2G3AB2G2D2 | 
[V:2] A2B4G2d4- | 
[V:3] z12 :
[V:4] F,2G,2D,2G,3A,B,2 | 
[V:1] G3FE2D2FECF- | 
[V:2] d4z4z4 | 
[V:3] z12 | 
[V:4] G,2D,2G,3F,2G,A,2 | 
[V:1] FEFG2AGc2BBA | 
[V:2] z12 | 
[V:3] z12 :
[V:4] F,G,A,B,C4D4 | 
[V:1] c3BAGG2z2A2 | 
[V:2] g2a3ge2f4 | 
[V:3] c12 :
[V:4] C2F,4G,2A,4 | 
[V:1] B2d4B2A3G | 
[V:2] g8e3f | 
[V:3] B8c4 | 
[V:4] G,8z4 | 
[V:1] B4G4z4 | 
[V:2] g8c4- | 
[V:3] d8G4- :
[V:4] G,8E,4- | 
[V:1] G4A6GA | 
[V:2] c4d8 | 
[V:3] G4F8 :
[V:4] E,4D,8 | 
[V:1] G3FD4E4 | 
[V:2] B8c4- | 
[V:3] G8E4- | 
[V:4] D8G,4- | 
[V:1] G6^F2F2E2 | 
[V:2] c4d8 | 
[V:3] E4D8 :
[V:4] G,4A,8 | 
[V:1] G12- | 
[V:2] B2B4G2B3c | 
[V:3] d12- :
[V:4] G,12- | 
[V:1] G12 ||  
[V:2] d4d8 ||  
[V:3] d12 ||  
[V:4] G,12 ||  
[V:1]  [K:C] [M:3/1]G4D2E3FG2 | 
[V:2]  [K:C] [M:3/1]G3AB2c3BG2 | 
[V:3]  [K:C] [M:3/1]z12 | 
[V:4]  [K:C] [M:3/1]z4z2C,3D,E,2 | 
[V:1] A4G2A3Bc2 | 
[V:2] c3de2f3ec2 | 
[V:3] z12 | 
[V:4] F,3E,C,2F,3G,A,2 | 
[V:1] d4c4z2A2- | 
[V:2] g4a4g2f2- | 
[V:3] z12 | 
[V:4] _B,3A,F,2C4D2- | 
[V:1] A2G4c4B2 | 
[V:2] f2g2c4d4 | 
[V:3] z12 | 
[V:4] D2B,2A,4G,4 | 
[V:1] c4G2A2G2c2 | 
[V:2] c8G2A2 | 
[V:3] z12 | 
[V:4] C,12 | 
[V:1] z2G3AGED2E2- | 
[V:2] G2c4G6 | 
[V:3] z12 | 
[V:4] C,8B,,2C,2- | 
[V:1] E2C2B,2C3A,B,2 | 
[V:2] A2G2F2E2F4 | 
[V:3] z12 | 
[V:4] C,2E,2D,2C,2D,4 | 
[V:1] C4z2E4D2- | 
[V:2] z2G2A2c2B4 | 
[V:3] z12 | 
[V:4] C,2B,,2A,,4G,,4 | 
[V:1] D2E2D2G4^F2 | 
[V:2] G4d4c4 | 
[V:3] z12 | 
[V:4] z2G,6A,4 | 
[V:1] G6A4c2 | 
[V:2] d6e2f4 | 
[V:3] z12 | 
[V:4] G,2B,4C2A,4 | 
[V:1] B2d4c4B2 | 
[V:2] g8f4 | 
[V:3] z12 | 
[V:4] G,4B,2C2D4 | 
[V:1] c3BG2A3GE2 | 
[V:2] g4z4z4 | 
[V:3] z12 | 
[V:4] C4z2C3B,G,2 | 
[V:1] F3EC3DCA,G,2 | 
[V:2] z12 | 
[V:3] z12 | 
[V:4] A,3G,E,2F,4E,2- | 
[V:1] C4D2EDGG2E | 
[V:2] z12 | 
[V:3] z12 | 
[V:4] E,C,D,/C,/B,,/A,,/G,,2zG,B,CB,G, | 
[V:1] F2G2z2A2G3E | 
[V:2] z12 | 
[V:3] z12 | 
[V:4] A,2G,2E,2F,2G,2E,2 | 
[V:1] F2E2A2G2F2E2 | 
[V:2] z12 | 
[V:3] z12 | 
[V:4] A,2G,2F,2E,2A,2G,E, | 
[V:1] A2GEFGE2F2G2 | 
[V:2] z12 | 
[V:3] z12 | 
[V:4] F,G,E,2z2C,2D,2B,,2 | 
[V:1] E2D4C2z2G2 | 
[V:2] z12 | 
[V:3] z12 | 
[V:4] C,2F,2G,2E,C,D,2C,2 | 
[V:1] A2GE2FG2z2C2 | 
[V:2] z12 | 
[V:3] z12 | 
[V:4] z2G,2A,2G,2C2zE, | 
[V:1] D2CE2DB,2C2D2- | 
[V:2] z12 | 
[V:3] z12 | 
[V:4] F,2E,2A,2zD,E,2D,2 | 
[V:1] DE2D2CB,D2CA,2 | 
[V:2] z12 | 
[V:3] z12 | 
[V:4] G,2zG,,A,,2G,,3C,2D,- | 
[V:1] B,G,2CB,D2FEGFA | 
[V:2] z12 | 
[V:3] z12 | 
[V:4] D,B,,A,,2G,,2D,2E,2F,2 | 
[V:1] GE3F2EC3D2 | 
[V:2] z12 | 
[V:3] z12 | 
[V:4] G,3A,2G,E,3F,2E, | 
[V:1] CA,3B,C2A,B,2G,C- | 
[V:2] z12 | 
[V:3] z12 | 
[V:4] C,3D,2C,A,,2G,,2z2 | 
[V:1] CDEFG2zG,2A,B,C | 
[V:2] z12 | 
[V:3] z12 | 
[V:4] C,3D,E,F,G,3F,E,D,/C,/ | 
[V:1] D2G,CDEA2GEFG | 
[V:2] z12 | 
[V:3] z12 | 
[V:4] B,,3/A,,/C,2G,,C,D,F,E,A,2G, | 
[V:1] C2B,CG,2B,A,G,C2B, | 
[V:2] z12 | 
[V:3] z12 | 
[V:4] E,F,G,C,2G,2F,G,C,D,2 | 
[V:1] C12 ||  
[V:2] z12 ||  
[V:3] z12 ||  
[V:4] C,12 ||  
[V:1]  [K:C] [M:2/1]G8- | 
[V:2]  [K:C] [M:2/1]e8- | 
[V:3]  [K:C] [M:2/1]c8- | 
[V:4]  [K:C] [M:2/1]C,8- | 
[V:1] G4A4- | 
[V:2] e8 | 
[V:3] c8- | 
[V:4] C,8 | 
[V:1] A4G4 | 
[V:2] f4g4- | 
[V:3] c8- | 
[V:4] F,4E,4 | 
[V:1] E8- | 
[V:2] g4e4 | 
[V:3] c8 | 
[V:4] C,8- | 
[V:1] E8 | 
[V:2] c8 | 
[V:3] G8- | 
[V:4] C,8 | 
[V:1] D4E4- | 
[V:2] B4c4 | 
[V:3] G8- | 
[V:4] z4C,4- | 
[V:1] E4D4- | 
[V:2] G4B4- | 
[V:3] G8- | 
[V:4] C,4B,,4 | 
[V:1] D4G4- | 
[V:2] B8- | 
[V:3] G8 | 
[V:4] G,,8- | 
[V:1] G4F2E2 | 
[V:2] B4G4 | 
[V:3] D8- | 
[V:4] G,,8 | 
[V:1] D8 | 
[V:2] G8 | 
[V:3] D8 | 
[V:4] B,,8 | 
[V:1] E8 | 
[V:2] A8 | 
[V:3] C8 | 
[V:4] A,,8- | 
[V:1] C4D4- | 
[V:2] z8 | 
[V:3] F8 | 
[V:4] A,,4B,,4- | 
[V:1] D4C4- | 
[V:2] G8- | 
[V:3] E8 | 
[V:4] B,,4C,4 | 
[V:1] C2A,2B,4 | 
[V:2] G8- | 
[V:3] D8 | 
[V:4] G,,8 | 
[V:1] C8- | 
[V:2] G8 | 
[V:3] z8 | 
[V:4] C,6A,,2 | 
[V:1] C8 | 
[V:2] E4C4 | 
[V:3] G8 | 
[V:4] C,4E,4 | 
[V:1] z8 | 
[V:2] D4D4- | 
[V:3] F8- | 
[V:4] D,4B,,4 | 
[V:1] A8 | 
[V:2] D4C4 | 
[V:3] F8 | 
[V:4] A,,8 | 
[V:1] B8 | 
[V:2] D8 | 
[V:3] G8- | 
[V:4] G,,8- | 
[V:1] G6E2 | 
[V:2] E4D4 | 
[V:3] G8 | 
[V:4] G,,8 | 
[V:1] E4D4- | 
[V:2] z4G4 | 
[V:3] z8 | 
[V:4] G,8 | 
[V:1] D8 | 
[V:2] A4B4- | 
[V:3] z8 | 
[V:4] D,4G,4- | 
[V:1] G6F2 | 
[V:2] B4c4 | 
[V:3] d8- | 
[V:4] G,4A,4 | 
[V:1] D8 | 
[V:2] G8 | 
[V:3] d8 | 
[V:4] B,8 | 
[V:1] z4A4 | 
[V:2] c8 | 
[V:3] e8- | 
[V:4] A,8 | 
[V:1] B4c4- | 
[V:2] z8 | 
[V:3] e8 | 
[V:4] G,4A,4 | 
[V:1] c2B2G4- | 
[V:2] z8 | 
[V:3] e8 | 
[V:4] C6B,2 | 
[V:1] G4B4- | 
[V:2] B6c2 | 
[V:3] d8 | 
[V:4] G,8 | 
[V:1] B4A4- | 
[V:2] d6e2 | 
[V:3] z4d4- | 
[V:4] D,8 | 
[V:1] A4B4- | 
[V:2] f4g4- | 
[V:3] d4d4 | 
[V:4] z4G,4- | 
[V:1] B2G2G4- | 
[V:2] g4e4 | 
[V:3] B4c4 | 
[V:4] G,4C,4 | 
[V:1] G4^F4 | 
[V:2] d8- | 
[V:3] A8 | 
[V:4] D,8 | 
[V:1] G6F2 | 
[V:2] d8 | 
[V:3] G8- | 
[V:4] G,,8- | 
[V:1] D4E4 | 
[V:2] B8- | 
[V:3] G8 | 
[V:4] G,,8- | 
[V:1] D4G4 | 
[V:2] B8 | 
[V:3] G8 | 
[V:4] G,,8 | 
[V:1] F4A4- | 
[V:2] A8- | 
[V:3] D8- | 
[V:4] z8 | 
[V:1] A2G2F2E2 | 
[V:2] A8 | 
[V:3] D4D4- | 
[V:4] z8 | 
[V:1] D4C4- | 
[V:2] z4G4 | 
[V:3] D4E4 | 
[V:4] z8 | 
[V:1] C4F4 | 
[V:2] A4c4 | 
[V:3] A8 | 
[V:4] z8 | 
[V:1] E2D2D4- | 
[V:2] B4A4 | 
[V:3] G4F4 | 
[V:4] z8 | 
[V:1] D2B,2^C4 | 
[V:2] G8 | 
[V:3] E8 | 
[V:4] z8 | 
[V:1] D8 | 
[V:2] A8 | 
[V:3] D8 | 
[V:4] z8 | 
[V:1] z8 | 
[V:2] F4G4 | 
[V:3] z8 | 
[V:4] D,4E,4 | 
[V:1] D4E4 | 
[V:2] A4z4 | 
[V:3] z8 | 
[V:4] F,4G,4 | 
[V:1] F4G4 | 
[V:2] A4B4 | 
[V:3] z8 | 
[V:4] z4G,4 | 
[V:1] z4G4 | 
[V:2] c4d4 | 
[V:3] z8 | 
[V:4] A,4G,4 | 
[V:1] A4G4- | 
[V:2] e6c2 | 
[V:3] z8 | 
[V:4] C8 | 
[V:1] G4c4- | 
[V:2] d4e4 | 
[V:3] z8 | 
[V:4] B,4C4 | 
[V:1] c4B4 | 
[V:2] f8 | 
[V:3] z8 | 
[V:4] D8 | 
[V:1] c8 | 
[V:2] g8 | 
[V:3] z8 | 
[V:4] C8- | 
[V:1] A4G4- | 
[V:2] e4d4- | 
[V:3] z8 | 
[V:4] C4B,4 | 
[V:1] G4E4 | 
[V:2] d4g4- | 
[V:3] z8 | 
[V:4] G,8- | 
[V:1] D8 | 
[V:2] g8 | 
[V:3] z8 | 
[V:4] G,4B,4 | 
[V:1] G4B4- | 
[V:2] z4f4- | 
[V:3] z8 | 
[V:4] C4D4- | 
[V:1] B2A2d4- | 
[V:2] f4g4- | 
[V:3] z8 | 
[V:4] D4B,4 | 
[V:1] d4B4 | 
[V:2] g4d4 | 
[V:3] z8 | 
[V:4] G,8- | 
[V:1] G8 | 
[V:2] e8 | 
[V:3] z8 | 
[V:4] G,4C4- | 
[V:1] z8 | 
[V:2] g8 | 
[V:3] z8 | 
[V:4] C4B,4 | 
[V:1] c8 | 
[V:2] f8 | 
[V:3] z8 | 
[V:4] A,8 | 
[V:1] B4A4- | 
[V:2] e4d4- | 
[V:3] z8 | 
[V:4] G,4F,4 | 
[V:1] A4G4- | 
[V:2] d8- | 
[V:3] z8 | 
[V:4] G,8 | 
[V:1] G2E2^F4 | 
[V:2] d4c4 | 
[V:3] z8 | 
[V:4] A,8 | 
[V:1] G8 ||  
[V:2] d8 ||  
[V:3] z8 ||  
[V:4] G,8 ||  
[V:1]  [K:C] [M:2/1]G8- | 
[V:2]  [K:C] [M:2/1]z8 | 
[V:3]  [K:C] [M:2/1]c8- | 
[V:4]  [K:C] [M:2/1]z8 | 
[V:1] G4A4- | 
[V:2] z8 | 
[V:3] c8- | 
[V:4] z8 | 
[V:1] A4G4 | 
[V:2] z8 | 
[V:3] c8- | 
[V:4] z8 | 
[V:1] c6d2 | 
[V:2] z8 | 
[V:3] c8 | 
[V:4] z8 | 
[V:1] B8 | 
[V:2] z8 | 
[V:3] d8- | 
[V:4] z8 | 
[V:1] A4d4- | 
[V:2] z8 | 
[V:3] d8 | 
[V:4] z8 | 
[V:1] d4B4 | 
[V:2] z8 | 
[V:3] B4G4 | 
[V:4] z8 | 
[V:1] A4G4 | 
[V:2] z8 | 
[V:3] c6d2 | 
[V:4] z8 | 
[V:1] c8 | 
[V:2] z8 | 
[V:3] e8 | 
[V:4] z8 | 
[V:1] B4A4- | 
[V:2] z8 | 
[V:3] d8 | 
[V:4] z8 | 
[V:1] A4G4 | 
[V:2] z8 | 
[V:3] c8 | 
[V:4] z8 | 
[V:1] F2A4G2 | 
[V:2] z8 | 
[V:3] d6B2 | 
[V:4] z8 | 
[V:1] E4D4 | 
[V:2] z8 | 
[V:3] c4d4 | 
[V:4] z8 | 
[V:1] G8 | 
[V:2] z8 | 
[V:3] B4c4- | 
[V:4] z8 | 
[V:1] A4c4 | 
[V:2] z8 | 
[V:3] c4A4 | 
[V:4] z8 | 
[V:1] B4G4- | 
[V:2] z8 | 
[V:3] G6F2 | 
[V:4] z8 | 
[V:1] G2F2E2D2 | 
[V:2] z8 | 
[V:3] E2D2G4- | 
[V:4] z8 | 
[V:1] G6A2 | 
[V:2] z8 | 
[V:3] G2A2B2c2 | 
[V:4] z8 | 
[V:1] B2c2d4 | 
[V:2] z8 | 
[V:3] d4G4 | 
[V:4] z8 | 
[V:1] G4z2c2 | 
[V:2] z8 | 
[V:3] z2c4A2 | 
[V:4] z8 | 
[V:1] B2d4c2 | 
[V:2] z8 | 
[V:3] G4F4 | 
[V:4] z8 | 
[V:1] B2G4F2 | 
[V:2] z8 | 
[V:3] G2B2c2d2 | 
[V:4] z8 | 
[V:1] G2E2D2G2 | 
[V:2] z8 | 
[V:3] e2c2d2B2 | 
[V:4] z8 | 
[V:1] A2G4^F2 | 
[V:2] z8 | 
[V:3] c4A4 | 
[V:4] z8 | 
[V:1] G8 ||  
[V:2] z8 ||  
[V:3] G8 ||  
[V:4] z8 ||  
[V:1]  [K:C] [M:2/1]z8 | 
[V:2]  [K:C] [M:2/1]z8 | 
[V:3]  [K:C] [M:2/1]z8 | 
[V:4]  [K:C] [M:2/1]G,8 | 
[V:1] z8 | 
[V:2] z8 | 
[V:3] z8 | 
[V:4] F,4E,4 | 
[V:1] z8 | 
[V:2] z8 | 
[V:3] z8 | 
[V:4] D,4B,,4 | 
[V:1] G8 | 
[V:2] z8 | 
[V:3] z8 | 
[V:4] C,4G,4 | 
[V:1] F4E4 | 
[V:2] z8 | 
[V:3] z8 | 
[V:4] A,4C4- | 
[V:1] D8 | 
[V:2] z8 | 
[V:3] z8 | 
[V:4] C2B,A,B,4- | 
[V:1] z4C4- | 
[V:2] z8 | 
[V:3] z8 | 
[V:4] B,2A,G,A,4- | 
[V:1] C4B,4 | 
[V:2] z8 | 
[V:3] z8 | 
[V:4] A,2G,2G,4- | 
[V:1] A,8 | 
[V:2] z8 | 
[V:3] z8 | 
[V:4] G,2F,E,F,4 | 
[V:1] G,4C4 | 
[V:2] z8 | 
[V:3] z8 | 
[V:4] z2E,4D,C, | 
[V:1] B,4A,2G,2- | 
[V:2] z8 | 
[V:3] z8 | 
[V:4] E,2D,2C,2B,,2 | 
[V:1] G,2^F,2G,4- | 
[V:2] z8 | 
[V:3] z8 | 
[V:4] A,,4G,,3A,, | 
[V:1] G,2A,2B,2C2 | 
[V:2] z8 | 
[V:3] z8 | 
[V:4] B,,2C,2G,,2z2 | 
[V:1] G,2z2C3D | 
[V:2] z8 | 
[V:3] z8 | 
[V:4] C,3D,E,2F,2 | 
[V:1] E2F2C2z2 | 
[V:2] z8 | 
[V:3] z8 | 
[V:4] C,2z2F,3G, | 
[V:1] F3GABc2 | 
[V:2] z8 | 
[V:3] z8 | 
[V:4] A,B,C2F,2A,2- | 
[V:1] F2A2G2c2- | 
[V:2] z8 | 
[V:3] z8 | 
[V:4] A,G,C2B,2C2 | 
[V:1] c2B2c4 | 
[V:2] z8 | 
[V:3] z8 | 
[V:4] D3CA,2B,2 | 
[V:1] A2B2c4 | 
[V:2] z8 | 
[V:3] z8 | 
[V:4] C4F,4 | 
[V:1] F4z4 | 
[V:2] z8 | 
[V:3] z8 | 
[V:4] z4C4 | 
[V:1] c4A2A2- | 
[V:2] z8 | 
[V:3] z8 | 
[V:4] A,2A,4F,2 | 
[V:1] A2F2F2G2 | 
[V:2] z8 | 
[V:3] z8 | 
[V:4] F,3G,_B,4- | 
[V:1] _B6A2 | 
[V:2] z8 | 
[V:3] z8 | 
[V:4] B,2A,2G,3F, | 
[V:1] G3FG4 | 
[V:2] z8 | 
[V:3] z8 | 
[V:4] G,4C,4 | 
[V:1] z4C4 | 
[V:2] z8 | 
[V:3] z8 | 
[V:4] B,,4C,2E,2 | 
[V:1] B,4C4 | 
[V:2] z8 | 
[V:3] z8 | 
[V:4] D,4C,2E,2 | 
[V:1] D4z2D2- | 
[V:2] z8 | 
[V:3] z8 | 
[V:4] D,2G,4F,2 | 
[V:1] D2E2D2G2- | 
[V:2] z8 | 
[V:3] z8 | 
[V:4] G,3A,B,2C2 | 
[V:1] GAF2_B2A2- | 
[V:2] z8 | 
[V:3] z8 | 
[V:4] A,2D4C2 | 
[V:1] A2G3E^F2 | 
[V:2] z8 | 
[V:3] z8 | 
[V:4] B,2G,2A,4 | 
[V:1] G8 | 
[V:2] z8 | 
[V:3] z8 | 
[V:4] G,4C4- | 
[V:1] A8 | 
[V:2] z8 | 
[V:3] z8 | 
[V:4] C4D4- | 
[V:1] B4c4 | 
[V:2] z8 | 
[V:3] z8 | 
[V:4] D4C4- | 
[V:1] A6G2 | 
[V:2] z8 | 
[V:3] z8 | 
[V:4] C4B,4 | 
[V:1] G4z4 | 
[V:2] z8 | 
[V:3] z8 | 
[V:4] G,4A,4- | 
[V:1] F8 | 
[V:2] z8 | 
[V:3] z8 | 
[V:4] A,4G,4- | 
[V:1] E6D2 | 
[V:2] z8 | 
[V:3] z8 | 
[V:4] G,4F,4 | 
[V:1] D8 | 
[V:2] z8 | 
[V:3] z8 | 
[V:4] D,4E,4- | 
[V:1] ^C4D4- | 
[V:2] z8 | 
[V:3] z8 | 
[V:4] E,4D,4 | 
[V:1] D4F4 | 
[V:2] z8 | 
[V:3] z8 | 
[V:4] z2F,3E,D,2 | 
[V:1] E2C6 | 
[V:2] z8 | 
[V:3] z8 | 
[V:4] C,4E,2F,2 | 
[V:1] E2F2G4 | 
[V:2] z8 | 
[V:3] z8 | 
[V:4] G,2A,2B,2C2- | 
[V:1] A2B2c3B | 
[V:2] z8 | 
[V:3] z8 | 
[V:4] C2B,2A,3G, | 
[V:1] A2G4F2 | 
[V:2] z8 | 
[V:3] z8 | 
[V:4] F,2E,2D,4 | 
[V:1] E2D4C2- | 
[V:2] z8 | 
[V:3] z8 | 
[V:4] C,4B,,2C,2 | 
[V:1] C2B,2C4- | 
[V:2] z8 | 
[V:3] z8 | 
[V:4] D,4C,4 | 
[V:1] C2E2D2F2 | 
[V:2] z8 | 
[V:3] z8 | 
[V:4] C4D4 | 
[V:1] G2A6 | 
[V:2] z8 | 
[V:3] z8 | 
[V:4] B,2A,2C3A, | 
[V:1] G2E2D4 | 
[V:2] z8 | 
[V:3] z8 | 
[V:4] B,2C4B,2 | 
[V:1] C8 ||  
[V:2] z8 ||  
[V:3] z8 ||  
[V:4] C8 ||  



